X: 32030
T: Peggy Menzies
R: reel
M: 4/4
K: Gmajor
~g2 (dg) BgdB|~g2 dB A2 AB|~g2 (de) gaba|gedB A2 AB:|
dGdB dGGe|dGdB A2 AB|dGde gaba|gedB A2 AB:|

